img/tw.svg

<svg viewBox="0 0 33 28" fill="none" xmlns="http://www.w3.org/2000/svg">
    <path d="M31.2644 4.4005C30.1335 4.89036 29.0023 5.19628 27.8719 5.31915C29.1486 4.5477 30.0124 3.45783 30.4623 2.04962C29.2943 2.74748 28.0481 3.22493 26.7229 3.48221C25.5553 2.23318 24.1207 1.6084 22.4181 1.6084C20.7886 1.6084 19.3996 2.18691 18.2499 3.3442C17.1011 4.50144 16.5265 5.90038 16.5265 7.54123C16.5265 7.982 16.5751 8.43525 16.6724 8.90055C14.2646 8.7781 12.006 8.16891 9.89606 7.07292C7.78624 5.9768 5.99568 4.5165 4.52438 2.69196C3.98931 3.61018 3.7217 4.60836 3.7217 5.68595C3.7217 6.70235 3.95877 7.64538 4.43327 8.51485C4.90744 9.38417 5.54599 10.0882 6.3486 10.6271C5.39995 10.5903 4.51229 10.3392 3.68554 9.87384V9.9473C3.68554 11.3802 4.13242 12.6381 5.02608 13.7222C5.91986 14.8062 7.04778 15.4885 8.4096 15.7702C7.89882 15.9048 7.38191 15.9721 6.85911 15.9721C6.51861 15.9721 6.14768 15.9416 5.74647 15.8808C6.12341 17.0683 6.81657 18.0446 7.82573 18.8104C8.83507 19.5757 9.97815 19.9702 11.255 19.9953C9.11491 21.6848 6.67684 22.5297 3.94083 22.5297C3.41786 22.5297 2.94374 22.5057 2.51807 22.4565C5.25416 24.2319 8.26981 25.1196 11.5652 25.1196C13.6568 25.1196 15.6206 24.7863 17.4561 24.1188C19.2927 23.4516 20.8611 22.5575 22.1624 21.4368C23.4634 20.3163 24.5853 19.0276 25.5276 17.5704C26.47 16.113 27.172 14.5917 27.6344 13.0059C28.0964 11.4198 28.3274 9.83124 28.3274 8.23902C28.3274 7.89611 28.3213 7.63908 28.3091 7.46756C29.4647 6.62301 30.4496 5.60031 31.2644 4.4005Z" fill="#FEFEFE" />
</svg>

<svg viewBox="0 0 33 28" fill="none" xmlns="http://www.w3.org/2000/svg"><path d="M31.264 4.4a11.69 11.69 0 0 1-3.392.92c1.277-.772 2.14-1.862 2.59-3.27a11.517 11.517 0 0 1-3.74 1.432c-1.167-1.249-2.601-1.874-4.304-1.874-1.63 0-3.018.579-4.168 1.736C17.1 4.501 16.526 5.9 16.526 7.541c0 .441.05.894.146 1.36a16.328 16.328 0 0 1-6.776-1.828 16.726 16.726 0 0 1-5.372-4.381 5.843 5.843 0 0 0-.802 2.994c0 1.016.237 1.96.711 2.829a5.912 5.912 0 0 0 1.916 2.112 5.814 5.814 0 0 1-2.663-.753v.073c0 1.433.446 2.691 1.34 3.775.894 1.084 2.022 1.767 3.384 2.048a6.06 6.06 0 0 1-1.55.202c-.341 0-.712-.03-1.114-.091a5.805 5.805 0 0 0 2.08 2.93 5.723 5.723 0 0 0 3.429 1.184c-2.14 1.69-4.578 2.535-7.314 2.535-.523 0-.997-.024-1.423-.074 2.736 1.776 5.752 2.664 9.047 2.664 2.092 0 4.056-.334 5.891-1.001 1.837-.667 3.405-1.561 4.706-2.682a17.906 17.906 0 0 0 3.366-3.867 17.295 17.295 0 0 0 2.106-4.564 16.97 16.97 0 0 0 .675-5.538A12.385 12.385 0 0 0 31.264 4.4Z" fill="#000"/></svg>
